images/phone-call-icon.svg

<svg width="20" height="20" viewBox="0 0 20 20" fill="none" xmlns="http://www.w3.org/2000/svg">
<g id="phone-call" clip-path="url(#clip0_391_649)">
<g id="Group">
<path id="Vector" opacity="0.958" fill-rule="evenodd" clip-rule="evenodd" d="M10.8398 -0.0195312C10.9961 -0.0195312 11.1523 -0.0195312 11.3086 -0.0195312C15.4041 0.899644 18.171 3.33454 19.6094 7.28516C19.7526 7.76703 19.8763 8.24883 19.9805 8.73047C19.9805 8.84766 19.9805 8.96484 19.9805 9.08203C19.7673 9.48039 19.4548 9.57805 19.043 9.375C18.9974 9.32941 18.9518 9.28387 18.9062 9.23828C18.3203 6.12914 16.6732 3.77889 13.9648 2.1875C12.9439 1.63886 11.8632 1.26125 10.7227 1.05469C10.3369 0.646824 10.376 0.288751 10.8398 -0.0195312Z" fill="#5684EB"/>
</g>
<g id="Group_2">
<path id="Vector_2" opacity="0.959" fill-rule="evenodd" clip-rule="evenodd" d="M14.9023 19.9805C14.5378 19.9805 14.1732 19.9805 13.8086 19.9805C12.683 19.8116 11.6023 19.4795 10.5664 18.9844C6.40391 16.9443 3.25936 13.8648 1.13281 9.74609C0.554621 8.59117 0.170505 7.38023 -0.0195312 6.11328C-0.0195312 5.77472 -0.0195312 5.43621 -0.0195312 5.09765C0.0567164 4.56336 0.245518 4.06855 0.546875 3.61328C1.21745 2.83854 1.94011 2.11588 2.71484 1.44531C3.56905 0.954432 4.37633 1.01954 5.13672 1.64062C6.09605 2.57388 7.02707 3.53091 7.92969 4.51172C8.42836 5.43972 8.31117 6.28605 7.57812 7.05078C7.13934 7.48957 6.70312 7.92578 6.26953 8.35937C6.77477 9.36328 7.4193 10.2682 8.20312 11.0742C9.17582 12.1325 10.2956 12.9919 11.5625 13.6523C12.0622 13.1918 12.5505 12.7165 13.0273 12.2266C13.9369 11.5131 14.8354 11.5261 15.7227 12.2656C16.5234 13.0664 17.3242 13.8672 18.125 14.668C18.8918 15.5063 18.97 16.4048 18.3594 17.3633C17.729 18.0327 17.0845 18.6903 16.4258 19.3359C15.9647 19.6695 15.4569 19.8843 14.9023 19.9805ZM3.76953 2.28515C3.95246 2.30229 4.12172 2.36089 4.27734 2.46094C5.14324 3.32682 6.0091 4.19269 6.875 5.05859C7.15445 5.46109 7.11539 5.83871 6.75781 6.1914C6.24887 6.7134 5.72805 7.22121 5.19531 7.71484C5.03402 7.93746 4.98195 8.18484 5.03906 8.45703C5.29305 9.10828 5.61855 9.72023 6.01562 10.293C7.1484 11.8425 8.5091 13.1511 10.0977 14.2187C10.4883 14.4271 10.8789 14.6354 11.2695 14.8437C11.6473 14.9702 11.9859 14.9051 12.2852 14.6484C12.819 14.1146 13.3529 13.5807 13.8867 13.0469C14.221 12.8051 14.5465 12.8182 14.8633 13.0859C15.7433 13.9529 16.6092 14.8318 17.4609 15.7227C17.6432 16.0091 17.6432 16.2956 17.4609 16.582C16.8675 17.2145 16.262 17.833 15.6445 18.4375C15.1075 18.7845 14.5215 18.9017 13.8867 18.7891C13.1443 18.6891 12.4282 18.4938 11.7383 18.2031C7.23664 16.2015 3.94887 12.9658 1.875 8.49609C1.46549 7.5807 1.22461 6.62367 1.15234 5.625C1.13693 5.11492 1.27365 4.65269 1.5625 4.23828C2.15495 3.64583 2.74739 3.05338 3.33984 2.46094C3.47864 2.37809 3.62186 2.3195 3.76953 2.28515Z" fill="#5684EB"/>
</g>
<g id="Group_3">
<path id="Vector_3" opacity="0.955" fill-rule="evenodd" clip-rule="evenodd" d="M10.8398 3.57422C13.4259 4.04672 15.1837 5.51156 16.1133 7.96875C16.276 8.39137 16.3476 8.82754 16.3281 9.27734C16.1538 9.60855 15.8869 9.71926 15.5273 9.60938C15.4313 9.55242 15.3466 9.48082 15.2734 9.39453C14.8967 7.42223 13.8095 5.99645 12.0117 5.11719C11.5683 4.94449 11.1126 4.81426 10.6445 4.72656C10.21 4.40609 10.184 4.05453 10.5664 3.67188C10.6612 3.63663 10.7523 3.60408 10.8398 3.57422Z" fill="#5684EB"/>
</g>
</g>
<defs>
<clipPath id="clip0_391_649">
<rect width="20" height="20" fill="white"/>
</clipPath>
</defs>
</svg>

<svg xmlns="http://www.w3.org/2000/svg" width="20" height="20" fill="none"><g clip-path="url(#a)"><path fill="#5684EB" fill-rule="evenodd" d="M10.84-.02h.469c4.095.92 6.862 3.355 8.3 7.305.144.482.267.964.371 1.445v.352c-.213.398-.525.496-.937.293l-.137-.137c-.586-3.109-2.233-5.46-4.941-7.05a10.917 10.917 0 0 0-3.242-1.133c-.386-.408-.347-.766.117-1.075Z" clip-rule="evenodd" opacity=".958"/><path fill="#5684EB" fill-rule="evenodd" d="M14.902 19.98H13.81a11.403 11.403 0 0 1-3.243-.996c-4.162-2.04-7.307-5.12-9.433-9.238A12.064 12.064 0 0 1-.02 6.113V5.098c.077-.535.266-1.03.567-1.485a21.299 21.299 0 0 1 2.168-2.168c.854-.49 1.661-.425 2.422.196.96.933 1.89 1.89 2.793 2.87.498.929.381 1.775-.352 2.54L6.27 8.359a10.9 10.9 0 0 0 1.933 2.715 12.174 12.174 0 0 0 3.36 2.578c.5-.46.987-.935 1.464-1.425.91-.714 1.808-.7 2.696.039l2.402 2.402c.767.838.845 1.737.234 2.695-.63.67-1.275 1.327-1.933 1.973a3.624 3.624 0 0 1-1.524.645ZM3.77 2.285c.182.017.352.076.507.176l2.598 2.598c.28.402.24.78-.117 1.132-.51.522-1.03 1.03-1.563 1.524a.898.898 0 0 0-.156.742c.254.651.58 1.263.977 1.836a16.243 16.243 0 0 0 4.082 3.926l1.171.625a.985.985 0 0 0 1.016-.196l1.602-1.601c.334-.242.66-.229.976.039.88.867 1.746 1.746 2.598 2.637a.743.743 0 0 1 0 .859 61.063 61.063 0 0 1-1.816 1.855 2.368 2.368 0 0 1-1.758.352 8.394 8.394 0 0 1-2.149-.586c-4.501-2.002-7.79-5.237-9.863-9.707a8.476 8.476 0 0 1-.723-2.871c-.015-.51.122-.972.41-1.387L3.34 2.461c.139-.083.282-.141.43-.176Z" clip-rule="evenodd" opacity=".959"/><path fill="#5684EB" fill-rule="evenodd" d="M10.84 3.574c2.586.473 4.344 1.938 5.273 4.395.163.422.235.859.215 1.308-.174.332-.441.442-.8.332a1 1 0 0 1-.255-.214c-.376-1.973-1.463-3.399-3.261-4.278a7.63 7.63 0 0 0-1.367-.39c-.435-.32-.461-.672-.079-1.055.095-.035.186-.068.274-.098Z" clip-rule="evenodd" opacity=".955"/></g><defs><clipPath id="a"><path fill="#fff" d="M0 0h20v20H0z"/></clipPath></defs></svg>
